images_elementary_svg/cmd/sc_pushbutton.svg

<svg height="16" viewBox="0 0 4.2333333 4.2333334" width="16" xmlns="http://www.w3.org/2000/svg" xmlns:xlink="http://www.w3.org/1999/xlink"><linearGradient id="a" gradientUnits="userSpaceOnUse" x1="26.459" x2="26.459" y1="5.219" y2="25.081"><stop offset="0" stop-color="#fff"/><stop offset=".063" stop-color="#fff" stop-opacity=".235"/><stop offset=".951" stop-color="#fff" stop-opacity=".157"/><stop offset="1" stop-color="#fff" stop-opacity=".392"/></linearGradient><linearGradient id="b" gradientTransform="matrix(3.54885 0 0 1 -822.227 -30.258)" gradientUnits="userSpaceOnUse" x1="236.195" x2="236.195" y1="35.804" y2="53.804"><stop offset="0" stop-color="#f4f4f4" stop-opacity=".746"/><stop offset=".5" stop-color="#f7f7f7"/><stop offset="1" stop-color="#dcdcdc"/></linearGradient><path d="m.404 1.193c-.147 0-.264.118-.265.264l-.007 1.32c0 .14.11.255.25.263l3.455-.005c.147 0 .264-.118.265-.265l.006-1.32c0-.14-.11-.254-.25-.263z" style="opacity:.2;fill:none;stroke:#000;stroke-width:.26458;stroke-linecap:round;stroke-linejoin:round"/><path d="m4.01 5.558c-1.11 0-2.018.892-2 2l.122 7.897c.017 1.108.892 2 2 2h24.093c1.108 0 2.017-.892 2-2l-.123-7.897c-.018-1.108-.892-2-2-2z" fill="url(#b)" transform="matrix(.1323 0 0 .1323 0 .59)"/><path d="m28.54 6.052-24.986.008c-.554 0-.997.445-1 1l-.043 8.935c0 .537.423.964.952.99h25.027c.554 0 .997-.445 1-1l.042-8.935c.003-.552-.442-.994-.992-.998z" fill="none" stroke="url(#a)" stroke-linecap="round" stroke-linejoin="round" transform="matrix(.1323 0 0 .1323 0 .59)"/><g fill="#fbfbfb"><path d="m1.323 2.117h.264v.264h-.264zm.264-.265h.265v.265h-.265zm.265.265h.265v.264h-.265z"/><path d="m1.323 2.38h.264v.266h-.264zm.529 0h.265v.266h-.265zm-.265.266h.265v.264h-.265zm.793-.794h.266v.265h-.266zm0 .265h.266v.264h-.266z"/><path d="m2.38 2.38h.266v.266h-.266zm0 .266h.266v.264h-.266zm.53-.794h.265v.265h-.265zm-.264.265h.264v.264h-.264zm.264.263h.265v.266h-.265zm0 .266h.265v.264h-.265z"/></g><g fill="#7c7c7c"><path d="m1.323 1.852h.264v.265h-.264zm.264-.264h.265v.264h-.265zm.265.264h.265v.265h-.265zm-.529.265h.264v.264h-.264zm.529 0h.265v.264h-.265z"/><path d="m1.587 2.38h.265v.266h-.265zm.793-.792h.266v.264h-.266zm0 .264h.266v.265h-.266zm0 .265h.266v.264h-.266z"/><path d="m2.38 2.38h.266v.266h-.266zm.53-.792h.265v.264h-.265zm-.264.264h.264v.265h-.264zm.264.265h.265v.264h-.265z"/><path d="m2.91 2.38h.265v.266h-.265z"/></g></svg>

<svg xmlns="http://www.w3.org/2000/svg" xmlns:xlink="http://www.w3.org/1999/xlink" width="16" height="16" viewBox="0 0 4.2333333 4.2333334"><defs><linearGradient id="a"><stop offset="0" stop-color="#fff"/><stop offset="1" stop-color="#fff" stop-opacity="0"/></linearGradient><linearGradient x1="105.472" y1="283.477" x2="105.472" y2="303.339" id="e" xlink:href="#b" gradientUnits="userSpaceOnUse" gradientTransform="matrix(1 0 0 1 -79.013 -278.258)"/><linearGradient id="b"><stop offset="0" stop-color="#fff"/><stop offset=".063" stop-color="#fff" stop-opacity=".235"/><stop offset=".951" stop-color="#fff" stop-opacity=".157"/><stop offset="1" stop-color="#fff" stop-opacity=".392"/></linearGradient><linearGradient x1="236.195" y1="35.804" x2="236.195" y2="53.804" id="d" xlink:href="#c" gradientUnits="userSpaceOnUse" gradientTransform="matrix(3.54885 0 0 1 -822.227 -30.258)"/><linearGradient id="c"><stop offset="0" stop-color="#f4f4f4" stop-opacity=".746"/><stop offset=".5" stop-color="#f7f7f7"/><stop offset="1" stop-color="#dcdcdc"/></linearGradient></defs><g color="#000"><path d="M.404 1.193c-.147 0-.264.118-.265.264l-.007 1.32c0 .14.11.255.25.263l3.455-.005c.147 0 .264-.118.265-.265l.006-1.32c0-.14-.11-.254-.25-.263z" overflow="visible" opacity=".2" fill="none" stroke="#000" stroke-width=".26458" stroke-linecap="round" stroke-linejoin="round"/><path d="M4.01 5.558c-1.11 0-2.018.892-2 2l.122 7.897c.017 1.108.892 2 2 2h24.093c1.108 0 2.017-.892 2-2l-.123-7.897c-.018-1.108-.892-2-2-2z" transform="translate(0 .59) scale(.1323)" overflow="visible" fill="url(#d)"/><path d="M28.54 6.052L3.554 6.06c-.554 0-.997.445-1 1l-.043 8.935c0 .537.423.964.952.99H28.49c.554 0 .997-.445 1-1l.042-8.935c.003-.552-.442-.994-.992-.998z" transform="translate(0 .59) scale(.1323)" overflow="visible" fill="none" stroke="url(#e)" stroke-linecap="round" stroke-linejoin="round"/></g><g fill="#fbfbfb"><path d="M1.323 2.117h.264v.264h-.264zM1.587 1.852h.265v.265h-.265zM1.852 2.117h.265v.264h-.265z"/><path d="M1.323 2.38h.264v.266h-.264zM1.852 2.38h.265v.266h-.265zM1.587 2.646h.265v.264h-.265zM2.38 1.852h.266v.265H2.38zM2.38 2.117h.266v.264H2.38z"/><path d="M2.38 2.38h.266v.266H2.38zM2.38 2.646h.266v.264H2.38zM2.91 1.852h.265v.265H2.91zM2.646 2.117h.264v.264h-.264zM2.91 2.38h.265v.266H2.91zM2.91 2.646h.265v.264H2.91z"/></g><g fill="#7c7c7c"><path d="M1.323 1.852h.264v.265h-.264zM1.587 1.588h.265v.264h-.265zM1.852 1.852h.265v.265h-.265zM1.323 2.117h.264v.264h-.264zM1.852 2.117h.265v.264h-.265z"/><path d="M1.587 2.38h.265v.266h-.265zM2.38 1.588h.266v.264H2.38zM2.38 1.852h.266v.265H2.38zM2.38 2.117h.266v.264H2.38z"/><path d="M2.38 2.38h.266v.266H2.38zM2.91 1.588h.265v.264H2.91zM2.646 1.852h.264v.265h-.264zM2.91 2.117h.265v.264H2.91z"/><path d="M2.91 2.38h.265v.266H2.91z"/></g></svg>
